X:4090
L:1/8
Q:1/4=180
M:4/4
K:D
|: dB |"D" AD (3FED AD (3FED |"D" Adcd"Bm" fdcd |"Em" BE (3GFE BE (3GFE | Bdde"A7" cdeg | 
"G" fd (3dcd fdBA |"G" Bdce"D" dfag |"G" fdec"G" dBAG |"A7" FAEF"D" D2 :: fg |"D" afdf"Em" bgef | 
"Bm" fdec"G" dcBA |"D" Bdce"Bm" dfeg |"Em" fa gb"A" a2 fg |"D" abaf"Em" gfeg | 
"Bm" (3fed ec"D" dfag |"Bm" fdec"G" dBAG |"A7" FGEF"D" D2 :|

